add-template.svg

<svg width="56px" height="56px" viewBox="0 0 56 56" version="1.1" xmlns="http://www.w3.org/2000/svg">
    <g id="picker" stroke="none" stroke-width="1" fill="none" fill-rule="evenodd">
        <g id="Picker" transform="translate(-5507.000000, -296.000000)" fill="#EAEAEA">
            <g id="picker_create" transform="translate(5120.000000, 169.000000)">
                <g id="Rectangle-454-Copy-11-+-Business-Model-Canva-Copy-3-+-Rectangle-7-Copy-8-Copy" transform="translate(290.000000, 40.000000)">
                    <g id="Group-2" transform="translate(97.000000, 87.000000)">
                        <path d="M29,27 L29,21 L27,21 L27,27 L21,27 L21,29 L27,29 L27,35 L29,35 L29,29 L35,29 L35,27 L29,27 Z M28,56 C43.463973,56 56,43.463973 56,28 C56,12.536027 43.463973,0 28,0 C12.536027,0 0,12.536027 0,28 C0,43.463973 12.536027,56 28,56 Z"
                              id="Combined-Shape"></path>
                    </g>
                </g>
            </g>
        </g>
    </g>
</svg>

<svg xmlns="http://www.w3.org/2000/svg" width="56" height="56" viewBox="0 0 56 56">
  <path fill="currentColor" fill-rule="evenodd" d="M29 27v-6h-2v6h-6v2h6v6h2v-6h6v-2h-6zm-1 29c15.46 0 28-12.54 28-28S43.46 0 28 0 0 12.54 0 28s12.54 28 28 28z"/>
</svg>
